src/shared/assets/images/img-default-profile.svg

<svg viewBox="0 0 120 120" fill="none" xmlns="http://www.w3.org/2000/svg">
<rect width="120" height="120" rx="60" fill="#E5F3FF"/>
<g filter="url(#filter0_d_24_65008)">
<path d="M52.6436 37.5C58.7695 37.5 64.3174 40.0008 68.3427 44.0472C68.7142 44.4207 69.2361 44.6007 69.7563 44.5368C70.5841 44.4351 71.4283 44.3825 72.2855 44.3825C78.479 44.3825 83.9937 47.1203 87.5418 51.3817C87.934 51.8527 88.5434 52.0817 89.1472 52.0005C89.7291 51.9222 90.3239 51.8816 90.9286 51.8816C97.8717 51.8817 103.5 57.2147 103.5 63.7933C103.5 70.3719 97.8716 75.705 90.9286 75.705C89.7524 75.705 88.6139 75.5518 87.5342 75.2655C86.9484 75.1101 86.3192 75.2574 85.8728 75.671C82.3752 78.912 77.5782 80.9118 72.2855 80.9118C69.6832 80.9118 67.2007 80.4281 64.9336 79.5514C64.4597 79.3682 63.9288 79.4054 63.4859 79.6555C60.2775 81.4673 56.5799 82.5 52.6436 82.5C48.346 82.5 44.333 81.269 40.9306 79.1372C40.2777 78.7282 39.4307 78.8082 38.8411 79.3058C36.4785 81.2994 33.4378 82.4995 30.1193 82.4995C22.5977 82.4994 16.5001 76.337 16.5 68.735C16.5 61.133 22.5976 54.9703 30.1193 54.9703C30.5897 54.9703 31.0085 54.6535 31.1296 54.1941C33.6626 44.5816 42.3348 37.5 52.6436 37.5Z" fill="white"/>
<path d="M42.7543 51.2443C42.7543 52.1202 42.0518 52.8302 41.1852 52.8302C40.3185 52.8302 39.616 52.1202 39.616 51.2443C39.616 50.3685 40.3185 49.6585 41.1852 49.6585C42.0518 49.6585 42.7543 50.3685 42.7543 51.2443Z" fill="#202020"/>
<path d="M49.8154 49.9228C49.8154 50.7986 49.1128 51.5086 48.2462 51.5086C47.3796 51.5086 46.6771 50.7986 46.6771 49.9228C46.6771 49.0469 47.3796 48.3369 48.2462 48.3369C49.1128 48.3369 49.8154 49.0469 49.8154 49.9228Z" fill="#202020"/>
<path d="M41.7729 55.602C42.0754 55.2128 42.625 55.1351 43.0204 55.4175L43.0582 55.4458L43.1602 55.5233C43.6929 55.9117 44.5689 56.3078 45.5331 56.2985C46.5043 56.289 47.6745 55.8696 48.7765 54.349L48.8054 54.3115C49.1109 53.9318 49.6608 53.8571 50.0558 54.1495C50.4636 54.4514 50.5521 55.0303 50.2534 55.4425L50.1194 55.6224C48.7277 57.4465 47.088 58.1335 45.5507 58.1484C44.1168 58.1624 42.8653 57.5923 42.0786 57.0162L41.9275 56.901L41.8912 56.8706C41.526 56.5492 41.4705 55.9913 41.7729 55.602Z" fill="#202020"/>
</g>
<defs>
<filter id="filter0_d_24_65008" x="10.5" y="31.5" width="107" height="65" filterUnits="userSpaceOnUse" color-interpolation-filters="sRGB">
<feFlood flood-opacity="0" result="BackgroundImageFix"/>
<feColorMatrix in="SourceAlpha" type="matrix" values="0 0 0 0 0 0 0 0 0 0 0 0 0 0 0 0 0 0 127 0" result="hardAlpha"/>
<feOffset dx="4" dy="4"/>
<feGaussianBlur stdDeviation="5"/>
<feComposite in2="hardAlpha" operator="out"/>
<feColorMatrix type="matrix" values="0 0 0 0 0.240404 0 0 0 0 0.618659 0 0 0 0 0.949632 0 0 0 0.04 0"/>
<feBlend mode="normal" in2="BackgroundImageFix" result="effect1_dropShadow_24_65008"/>
<feBlend mode="normal" in="SourceGraphic" in2="effect1_dropShadow_24_65008" result="shape"/>
</filter>
</defs>
</svg>

<svg xmlns="http://www.w3.org/2000/svg" fill="none" viewBox="0 0 120 120"><rect width="120" height="120" fill="#e5f3ff" rx="60"/><g filter="url(#a)"><path fill="#fff" d="M52.644 37.5c6.126 0 11.673 2.5 15.699 6.547.371.374.893.554 1.413.49a21 21 0 0 1 2.53-.154c6.193 0 11.708 2.737 15.256 6.999a1.78 1.78 0 0 0 1.605.619 13 13 0 0 1 1.782-.12c6.943 0 12.571 5.334 12.571 11.912s-5.628 11.912-12.571 11.912c-1.177 0-2.315-.153-3.395-.44a1.77 1.77 0 0 0-1.661.406c-3.498 3.241-8.295 5.24-13.588 5.24-2.602 0-5.084-.483-7.351-1.36a1.7 1.7 0 0 0-1.448.105A22 22 0 0 1 52.644 82.5a22 22 0 0 1-11.713-3.363c-.653-.409-1.5-.329-2.09.169A13.48 13.48 0 0 1 30.12 82.5c-7.521 0-13.619-6.163-13.619-13.765S22.598 54.97 30.12 54.97c.47 0 .889-.316 1.01-.776C33.663 44.582 42.335 37.5 52.644 37.5"/><path fill="#202020" d="M42.754 51.244c0 .876-.702 1.586-1.569 1.586s-1.569-.71-1.569-1.586.703-1.586 1.57-1.586c.866 0 1.568.71 1.568 1.586m7.061-1.321c0 .876-.702 1.586-1.569 1.586-.866 0-1.569-.71-1.569-1.586s.703-1.586 1.57-1.586c.866 0 1.568.71 1.568 1.586m-8.042 5.679a.91.91 0 0 1 1.247-.184l.038.028.102.077c.533.389 1.409.785 2.373.775.971-.009 2.142-.428 3.243-1.949l.03-.037a.91.91 0 0 1 1.25-.162.93.93 0 0 1 .197 1.293l-.134.18c-1.391 1.824-3.031 2.51-4.568 2.525-1.434.014-2.686-.556-3.472-1.132l-.151-.115-.037-.03a.93.93 0 0 1-.118-1.269"/></g><defs><filter id="a" width="107" height="65" x="10.5" y="31.5" color-interpolation-filters="sRGB" filterUnits="userSpaceOnUse"><feFlood flood-opacity="0" result="BackgroundImageFix"/><feColorMatrix in="SourceAlpha" result="hardAlpha" values="0 0 0 0 0 0 0 0 0 0 0 0 0 0 0 0 0 0 127 0"/><feOffset dx="4" dy="4"/><feGaussianBlur stdDeviation="5"/><feComposite in2="hardAlpha" operator="out"/><feColorMatrix values="0 0 0 0 0.240404 0 0 0 0 0.618659 0 0 0 0 0.949632 0 0 0 0.04 0"/><feBlend in2="BackgroundImageFix" result="effect1_dropShadow_24_65008"/><feBlend in="SourceGraphic" in2="effect1_dropShadow_24_65008" result="shape"/></filter></defs></svg>
